images_sukapura_svg/svx/res/symphony/Indent4.svg

<?xml version="1.0" encoding="UTF-8" standalone="no"?>
<svg
   xmlns:dc="http://purl.org/dc/elements/1.1/"
   xmlns:cc="http://creativecommons.org/ns#"
   xmlns:rdf="http://www.w3.org/1999/02/22-rdf-syntax-ns#"
   xmlns:svg="http://www.w3.org/2000/svg"
   xmlns="http://www.w3.org/2000/svg"
   xmlns:xlink="http://www.w3.org/1999/xlink"
   xmlns:sodipodi="http://sodipodi.sourceforge.net/DTD/sodipodi-0.dtd"
   xmlns:inkscape="http://www.inkscape.org/namespaces/inkscape"
   viewBox="0 0 16 16"
   version="1.1"
   id="svg20"
   sodipodi:docname="Indent4.svg"
   inkscape:export-filename="/home/rizmut/Dokumen/Rizmut/Github/libreoffice-style-colibrex/images_colibrex/svx/res/symphony/Indent4.png"
   inkscape:export-xdpi="96"
   inkscape:export-ydpi="96"
   inkscape:version="0.92.3 (unknown)">
  <metadata
     id="metadata26">
    <rdf:RDF>
      <cc:Work
         rdf:about="">
        <dc:format>image/svg+xml</dc:format>
        <dc:type
           rdf:resource="http://purl.org/dc/dcmitype/StillImage" />
      </cc:Work>
    </rdf:RDF>
  </metadata>
  <defs
     id="defs24">
    <linearGradient
       gradientTransform="translate(-25.830508,-3.5932203)"
       id="a"
       gradientUnits="userSpaceOnUse"
       x1="14"
       x2="13.79661"
       y1="22"
       y2="2.1355929">
      <stop
         offset="0"
         stop-color="#0040dd"
         id="stop2" />
      <stop
         offset="1"
         stop-color="#0a84ff"
         id="stop4" />
    </linearGradient>
    <linearGradient
       inkscape:collect="always"
       xlink:href="#a"
       id="linearGradient921"
       gradientUnits="userSpaceOnUse"
       gradientTransform="matrix(-1,0,0,1,-29.010942,26.95119)"
       x1="-31.010942"
       y1="-4.95119"
       x2="-31.010942"
       y2="-16.951191" />
    <linearGradient
       inkscape:collect="always"
       xlink:href="#a"
       id="linearGradient858"
       x1="4"
       y1="11"
       x2="4"
       y2="5"
       gradientUnits="userSpaceOnUse" />
  </defs>
  <sodipodi:namedview
     pagecolor="#ffffff"
     bordercolor="#666666"
     borderopacity="1"
     objecttolerance="10"
     gridtolerance="10"
     guidetolerance="10"
     inkscape:pageopacity="0"
     inkscape:pageshadow="2"
     inkscape:window-width="1366"
     inkscape:window-height="706"
     id="namedview22"
     showgrid="true"
     inkscape:zoom="20.85965"
     inkscape:cx="1.2105608"
     inkscape:cy="9.8689878"
     inkscape:window-x="0"
     inkscape:window-y="0"
     inkscape:window-maximized="1"
     inkscape:current-layer="svg20">
    <inkscape:grid
       type="xygrid"
       id="grid833" />
  </sodipodi:namedview>
  <g
     transform="rotate(90,7.5,6.5)"
     id="g18-3"
     style="fill:#0a84ff;fill-opacity:1;stroke:none;stroke-opacity:1">
    <path
       style="fill:url(#linearGradient858);fill-opacity:1;stroke:none;stroke-opacity:1"
       d="M 0 5 L 0 7 L 0 9 L 0 11 L 2 11 L 2 9 L 6 9 L 6 11 L 8 11 L 8 9 L 8 7 L 8 5 L 6 5 L 6 7 L 2 7 L 2 5 L 0 5 z "
       transform="rotate(-90,7.5,6.5)"
       id="path12-6" />
  </g>
  <g
     fill="none"
     stroke="#808080"
     stroke-linecap="round"
     stroke-linejoin="round"
     transform="matrix(-1 0 0 1 16.95201 0)"
     id="g10"
     style="stroke:#69696e;stroke-opacity:1">
    <path
       d="m1.444989 3.5h13.062083z"
       id="path2"
       style="stroke:#69696e;stroke-opacity:1" />
    <path
       d="m1.4929286 6.5000001h5.0113609z"
       id="path4"
       style="stroke:#69696e;stroke-opacity:1" />
    <path
       d="m1.4929284 9.5000001h5.0322264z"
       id="path6"
       style="stroke:#69696e;stroke-opacity:1" />
    <path
       d="m1.4929286 12.5h13.0172474z"
       id="path8"
       style="stroke:#69696e;stroke-opacity:1" />
  </g>
  <g
     style="fill:none;stroke:#e9e9e9;stroke-linecap:round;stroke-linejoin:round;stroke-opacity:0.99215686"
     id="g829"
     transform="matrix(-1,0,0,1,16.95201,1)">
    <path
       style="stroke:#e9e9e9;stroke-opacity:0.99215686"
       id="path821"
       d="M 1.444989,3.5 H 14.507072 Z"
       inkscape:connector-curvature="0" />
    <path
       style="stroke:#e9e9e9;stroke-opacity:0.99215686"
       id="path823"
       d="M 1.4929286,6.5000001 H 6.5042895 Z"
       inkscape:connector-curvature="0" />
    <path
       style="stroke:#e9e9e9;stroke-opacity:0.99215686"
       id="path825"
       d="M 1.4929284,9.5000001 H 6.5251548 Z"
       inkscape:connector-curvature="0" />
    <path
       style="stroke:#e9e9e9;stroke-opacity:0.99215686"
       id="path827"
       d="M 1.4929286,12.5 H 14.510176 Z"
       inkscape:connector-curvature="0" />
  </g>
</svg>

<svg viewBox="0 0 16 16" xmlns="http://www.w3.org/2000/svg" xmlns:xlink="http://www.w3.org/1999/xlink"><linearGradient id="a" gradientUnits="userSpaceOnUse" x1="-21.830508" x2="-21.830508" y1="7.40678" y2="1.40678"><stop offset="0" stop-color="#0040dd"/><stop offset="1" stop-color="#0a84ff"/></linearGradient><path d="m0 5v2 2 2h2v-2h4v2h2v-2-2-2h-2v2h-4v-2z" fill="url(#a)"/><g fill="none" stroke-linecap="round" stroke-linejoin="round"><g stroke="#69696e" transform="matrix(-1 0 0 1 16.95201 0)"><path d="m1.444989 3.5h13.062083z"/><path d="m1.4929286 6.5000001h5.0113609z"/><path d="m1.4929284 9.5000001h5.0322264z"/><path d="m1.4929286 12.5h13.0172474z"/></g><g stroke="#e9e9e9" stroke-opacity=".992157" transform="matrix(-1 0 0 1 16.95201 1)"><path d="m1.444989 3.5h13.062083z"/><path d="m1.4929286 6.5000001h5.0113609z"/><path d="m1.4929284 9.5000001h5.0322264z"/><path d="m1.4929286 12.5h13.0172474z"/></g></g></svg>
